src/assets/img/globalping/polygons_2.svg

<svg width="510" height="289" viewBox="0 0 510 289" fill="none" xmlns="http://www.w3.org/2000/svg">
<path fill-rule="evenodd" clip-rule="evenodd" d="M357.533 38.8892L295.032 2.80385C293.175 1.73205 290.888 1.73205 289.032 2.80385L226.53 38.8892C224.674 39.961 223.53 41.9418 223.53 44.0854V116.256C223.53 118.4 224.674 120.38 226.53 121.452L289.032 157.538C290.888 158.609 293.175 158.609 295.032 157.538L357.533 121.452C359.39 120.38 360.533 118.4 360.533 116.256V44.0854C360.533 41.9418 359.39 39.961 357.533 38.8892ZM296.032 1.07179C293.556 -0.357268 290.507 -0.357263 288.032 1.0718L225.53 37.1571C223.055 38.5862 221.53 41.2272 221.53 44.0854V116.256C221.53 119.114 223.055 121.755 225.53 123.184L288.032 159.27C290.507 160.699 293.556 160.699 296.032 159.27L358.533 123.184C361.009 121.755 362.533 119.114 362.533 116.256V44.0854C362.533 41.2272 361.009 38.5862 358.533 37.1571L296.032 1.07179ZM504.91 38.8892L442.408 2.80385C440.552 1.73205 438.265 1.73205 436.408 2.80385L373.907 38.8892C372.05 39.961 370.907 41.9418 370.907 44.0854V116.256C370.907 118.4 372.05 120.38 373.907 121.452L436.408 157.538C438.265 158.609 440.552 158.609 442.408 157.538L504.91 121.452C506.766 120.38 507.91 118.4 507.91 116.256V44.0854C507.91 41.9418 506.766 39.961 504.91 38.8892ZM443.408 1.07179C440.933 -0.357268 437.884 -0.357263 435.408 1.0718L372.907 37.1571C370.431 38.5862 368.907 41.2272 368.907 44.0854V116.256C368.907 119.114 370.431 121.755 372.907 123.184L435.408 159.27C437.884 160.699 440.933 160.699 443.408 159.27L505.91 123.184C508.385 121.755 509.91 119.114 509.91 116.256V44.0854C509.91 41.2272 508.385 38.5862 505.91 37.1571L443.408 1.07179ZM74.0317 130.533L136.533 166.618C138.39 167.69 139.533 169.67 139.533 171.814V243.985C139.533 246.128 138.39 248.109 136.533 249.181L74.0317 285.266C72.1753 286.338 69.8881 286.338 68.0317 285.266L5.53007 249.181C3.67366 248.109 2.53006 246.128 2.53006 243.985V171.814C2.53006 169.67 3.67366 167.69 5.53006 166.618L68.0317 130.533C69.8881 129.461 72.1753 129.461 74.0317 130.533ZM67.0317 128.8C69.5069 127.371 72.5565 127.371 75.0317 128.8L137.533 164.886C140.009 166.315 141.533 168.956 141.533 171.814V243.985C141.533 246.843 140.009 249.484 137.533 250.913L75.0317 286.998C72.5565 288.427 69.5069 288.427 67.0317 286.998L4.53007 250.913C2.05486 249.484 0.53006 246.843 0.53006 243.985V171.814C0.53006 168.956 2.05485 166.315 4.53006 164.886L67.0317 128.8ZM431.064 166.254L368.562 130.168C366.705 129.096 364.418 129.096 362.562 130.168L300.06 166.254C298.204 167.325 297.06 169.306 297.06 171.45V243.62C297.06 245.764 298.204 247.745 300.06 248.817L362.562 284.902C364.418 285.974 366.705 285.974 368.562 284.902L431.064 248.817C432.92 247.745 434.064 245.764 434.064 243.62V171.45C434.064 169.306 432.92 167.325 431.064 166.254ZM369.562 128.436C367.087 127.007 364.037 127.007 361.562 128.436L299.06 164.522C296.585 165.951 295.06 168.592 295.06 171.45V243.62C295.06 246.479 296.585 249.12 299.06 250.549L361.562 286.634C364.037 288.063 367.087 288.063 369.562 286.634L432.064 250.549C434.539 249.12 436.064 246.479 436.064 243.62V171.45C436.064 168.592 434.539 165.951 432.064 164.522L369.562 128.436ZM221.502 130.168L284.003 166.254C285.86 167.325 287.003 169.306 287.003 171.45V243.62C287.003 245.764 285.86 247.745 284.003 248.817L221.502 284.902C219.645 285.974 217.358 285.974 215.502 284.902L153 248.817C151.144 247.745 150 245.764 150 243.62V171.45C150 169.306 151.144 167.325 153 166.254L215.502 130.168C217.358 129.096 219.645 129.096 221.502 130.168ZM214.502 128.436C216.977 127.007 220.026 127.007 222.502 128.436L285.003 164.522C287.479 165.951 289.003 168.592 289.003 171.45V243.62C289.003 246.479 287.479 249.12 285.003 250.549L222.502 286.634C220.026 288.063 216.977 288.063 214.502 286.634L152 250.549C149.525 249.12 148 246.479 148 243.62V171.45C148 168.592 149.525 165.951 152 164.522L214.502 128.436Z" fill="url(#paint0_radial_6017_11744)"/>
<path fill-rule="evenodd" clip-rule="evenodd" d="M357.533 38.8892L295.032 2.80385C293.175 1.73205 290.888 1.73205 289.032 2.80385L226.53 38.8892C224.674 39.961 223.53 41.9418 223.53 44.0854V116.256C223.53 118.4 224.674 120.38 226.53 121.452L289.032 157.538C290.888 158.609 293.175 158.609 295.032 157.538L357.533 121.452C359.39 120.38 360.533 118.4 360.533 116.256V44.0854C360.533 41.9418 359.39 39.961 357.533 38.8892ZM296.032 1.07179C293.556 -0.357268 290.507 -0.357263 288.032 1.0718L225.53 37.1571C223.055 38.5862 221.53 41.2272 221.53 44.0854V116.256C221.53 119.114 223.055 121.755 225.53 123.184L288.032 159.27C290.507 160.699 293.556 160.699 296.032 159.27L358.533 123.184C361.009 121.755 362.533 119.114 362.533 116.256V44.0854C362.533 41.2272 361.009 38.5862 358.533 37.1571L296.032 1.07179ZM504.91 38.8892L442.408 2.80385C440.552 1.73205 438.265 1.73205 436.408 2.80385L373.907 38.8892C372.05 39.961 370.907 41.9418 370.907 44.0854V116.256C370.907 118.4 372.05 120.38 373.907 121.452L436.408 157.538C438.265 158.609 440.552 158.609 442.408 157.538L504.91 121.452C506.766 120.38 507.91 118.4 507.91 116.256V44.0854C507.91 41.9418 506.766 39.961 504.91 38.8892ZM443.408 1.07179C440.933 -0.357268 437.884 -0.357263 435.408 1.0718L372.907 37.1571C370.431 38.5862 368.907 41.2272 368.907 44.0854V116.256C368.907 119.114 370.431 121.755 372.907 123.184L435.408 159.27C437.884 160.699 440.933 160.699 443.408 159.27L505.91 123.184C508.385 121.755 509.91 119.114 509.91 116.256V44.0854C509.91 41.2272 508.385 38.5862 505.91 37.1571L443.408 1.07179ZM74.0317 130.533L136.533 166.618C138.39 167.69 139.533 169.67 139.533 171.814V243.985C139.533 246.128 138.39 248.109 136.533 249.181L74.0317 285.266C72.1753 286.338 69.8881 286.338 68.0317 285.266L5.53007 249.181C3.67366 248.109 2.53006 246.128 2.53006 243.985V171.814C2.53006 169.67 3.67366 167.69 5.53006 166.618L68.0317 130.533C69.8881 129.461 72.1753 129.461 74.0317 130.533ZM67.0317 128.8C69.5069 127.371 72.5565 127.371 75.0317 128.8L137.533 164.886C140.009 166.315 141.533 168.956 141.533 171.814V243.985C141.533 246.843 140.009 249.484 137.533 250.913L75.0317 286.998C72.5565 288.427 69.5069 288.427 67.0317 286.998L4.53007 250.913C2.05486 249.484 0.53006 246.843 0.53006 243.985V171.814C0.53006 168.956 2.05485 166.315 4.53006 164.886L67.0317 128.8ZM431.064 166.254L368.562 130.168C366.705 129.096 364.418 129.096 362.562 130.168L300.06 166.254C298.204 167.325 297.06 169.306 297.06 171.45V243.62C297.06 245.764 298.204 247.745 300.06 248.817L362.562 284.902C364.418 285.974 366.705 285.974 368.562 284.902L431.064 248.817C432.92 247.745 434.064 245.764 434.064 243.62V171.45C434.064 169.306 432.92 167.325 431.064 166.254ZM369.562 128.436C367.087 127.007 364.037 127.007 361.562 128.436L299.06 164.522C296.585 165.951 295.06 168.592 295.06 171.45V243.62C295.06 246.479 296.585 249.12 299.06 250.549L361.562 286.634C364.037 288.063 367.087 288.063 369.562 286.634L432.064 250.549C434.539 249.12 436.064 246.479 436.064 243.62V171.45C436.064 168.592 434.539 165.951 432.064 164.522L369.562 128.436ZM221.502 130.168L284.003 166.254C285.86 167.325 287.003 169.306 287.003 171.45V243.62C287.003 245.764 285.86 247.745 284.003 248.817L221.502 284.902C219.645 285.974 217.358 285.974 215.502 284.902L153 248.817C151.144 247.745 150 245.764 150 243.62V171.45C150 169.306 151.144 167.325 153 166.254L215.502 130.168C217.358 129.096 219.645 129.096 221.502 130.168ZM214.502 128.436C216.977 127.007 220.026 127.007 222.502 128.436L285.003 164.522C287.479 165.951 289.003 168.592 289.003 171.45V243.62C289.003 246.479 287.479 249.12 285.003 250.549L222.502 286.634C220.026 288.063 216.977 288.063 214.502 286.634L152 250.549C149.525 249.12 148 246.479 148 243.62V171.45C148 168.592 149.525 165.951 152 164.522L214.502 128.436Z" fill="url(#paint1_radial_6017_11744)"/>
<defs>
<radialGradient id="paint0_radial_6017_11744" cx="0" cy="0" r="1" gradientUnits="userSpaceOnUse" gradientTransform="translate(199.593 355.762) rotate(-55.4474) scale(368.501 387.263)">
<stop stop-color="#17D4A7" stop-opacity="0.5"/>
<stop offset="1" stop-color="#17D4A7" stop-opacity="0"/>
</radialGradient>
<radialGradient id="paint1_radial_6017_11744" cx="0" cy="0" r="1" gradientUnits="userSpaceOnUse" gradientTransform="translate(175.093 124.262) rotate(57.5103) scale(119.148 103.888)">
<stop stop-color="#174BFF"/>
<stop offset="1" stop-color="#174BFF" stop-opacity="0"/>
</radialGradient>
</defs>
</svg>

<svg xmlns="http://www.w3.org/2000/svg" width="510" height="289" fill="none">
  <path fill="url(#a)" fill-rule="evenodd" d="M357.533 38.89 295.032 2.803a6 6 0 0 0-6 0L226.53 38.889a6 6 0 0 0-3 5.196v72.171a6 6 0 0 0 3 5.196l62.502 36.086a6.004 6.004 0 0 0 6 0l62.501-36.086a5.998 5.998 0 0 0 3-5.196v-72.17a5.999 5.999 0 0 0-3-5.197ZM296.032 1.071a8 8 0 0 0-8 0L225.53 37.157a8 8 0 0 0-4 6.928v72.171a8 8 0 0 0 4 6.928l62.502 36.086a8 8 0 0 0 8 0l62.501-36.086a7.998 7.998 0 0 0 4-6.928v-72.17c0-2.859-1.524-5.5-4-6.929L296.032 1.072ZM504.91 38.889 442.408 2.804a6 6 0 0 0-6 0l-62.501 36.085a5.999 5.999 0 0 0-3 5.196v72.171a5.998 5.998 0 0 0 3 5.196l62.501 36.086a6.004 6.004 0 0 0 6 0l62.502-36.086a6 6 0 0 0 3-5.196v-72.17a6 6 0 0 0-3-5.197ZM443.408 1.072a8 8 0 0 0-8 0l-62.501 36.085a7.998 7.998 0 0 0-4 6.928v72.171a7.998 7.998 0 0 0 4 6.928l62.501 36.086a8 8 0 0 0 8 0l62.502-36.086a8 8 0 0 0 4-6.928v-72.17a8 8 0 0 0-4-6.929L443.408 1.072ZM74.032 130.533l62.501 36.085a5.998 5.998 0 0 1 3 5.196v72.171a6 6 0 0 1-3 5.196l-62.501 36.085a5.999 5.999 0 0 1-6 0L5.53 249.181a6 6 0 0 1-3-5.196v-72.171a6 6 0 0 1 3-5.196l62.502-36.085a5.999 5.999 0 0 1 6 0Zm-7-1.733a8 8 0 0 1 8 0l62.501 36.086a7.998 7.998 0 0 1 4 6.928v72.171a7.998 7.998 0 0 1-4 6.928l-62.501 36.085a8 8 0 0 1-8 0L4.53 250.913a8 8 0 0 1-4-6.928v-72.171a8 8 0 0 1 4-6.928L67.032 128.8Zm364.032 37.454-62.502-36.086a5.999 5.999 0 0 0-6 0l-62.502 36.086a6 6 0 0 0-3 5.196v72.17a6.002 6.002 0 0 0 3 5.197l62.502 36.085a5.999 5.999 0 0 0 6 0l62.502-36.085a6.002 6.002 0 0 0 3-5.197v-72.17a6 6 0 0 0-3-5.196Zm-61.502-37.818a8 8 0 0 0-8 0l-62.502 36.086a8 8 0 0 0-4 6.928v72.17a8 8 0 0 0 4 6.929l62.502 36.085a8 8 0 0 0 8 0l62.502-36.085a8 8 0 0 0 4-6.929v-72.17a8 8 0 0 0-4-6.928l-62.502-36.086Zm-148.06 1.732 62.501 36.086a5.997 5.997 0 0 1 3 5.196v72.17a6 6 0 0 1-3 5.197l-62.501 36.085a5.999 5.999 0 0 1-6 0L153 248.817a6.002 6.002 0 0 1-3-5.197v-72.17a6 6 0 0 1 3-5.196l62.502-36.086a5.999 5.999 0 0 1 6 0Zm-7-1.732a8 8 0 0 1 8 0l62.501 36.086a7.998 7.998 0 0 1 4 6.928v72.17c0 2.859-1.524 5.5-4 6.929l-62.501 36.085a8 8 0 0 1-8 0L152 250.549a8 8 0 0 1-4-6.929v-72.17a8 8 0 0 1 4-6.928l62.502-36.086Z" clip-rule="evenodd"/>
  <path fill="url(#b)" fill-rule="evenodd" d="M357.533 38.89 295.032 2.803a6 6 0 0 0-6 0L226.53 38.889a6 6 0 0 0-3 5.196v72.171a6 6 0 0 0 3 5.196l62.502 36.086a6.004 6.004 0 0 0 6 0l62.501-36.086a5.998 5.998 0 0 0 3-5.196v-72.17a5.999 5.999 0 0 0-3-5.197ZM296.032 1.071a8 8 0 0 0-8 0L225.53 37.157a8 8 0 0 0-4 6.928v72.171a8 8 0 0 0 4 6.928l62.502 36.086a8 8 0 0 0 8 0l62.501-36.086a7.998 7.998 0 0 0 4-6.928v-72.17c0-2.859-1.524-5.5-4-6.929L296.032 1.072ZM504.91 38.889 442.408 2.804a6 6 0 0 0-6 0l-62.501 36.085a5.999 5.999 0 0 0-3 5.196v72.171a5.998 5.998 0 0 0 3 5.196l62.501 36.086a6.004 6.004 0 0 0 6 0l62.502-36.086a6 6 0 0 0 3-5.196v-72.17a6 6 0 0 0-3-5.197ZM443.408 1.072a8 8 0 0 0-8 0l-62.501 36.085a7.998 7.998 0 0 0-4 6.928v72.171a7.998 7.998 0 0 0 4 6.928l62.501 36.086a8 8 0 0 0 8 0l62.502-36.086a8 8 0 0 0 4-6.928v-72.17a8 8 0 0 0-4-6.929L443.408 1.072ZM74.032 130.533l62.501 36.085a5.998 5.998 0 0 1 3 5.196v72.171a6 6 0 0 1-3 5.196l-62.501 36.085a5.999 5.999 0 0 1-6 0L5.53 249.181a6 6 0 0 1-3-5.196v-72.171a6 6 0 0 1 3-5.196l62.502-36.085a5.999 5.999 0 0 1 6 0Zm-7-1.733a8 8 0 0 1 8 0l62.501 36.086a7.998 7.998 0 0 1 4 6.928v72.171a7.998 7.998 0 0 1-4 6.928l-62.501 36.085a8 8 0 0 1-8 0L4.53 250.913a8 8 0 0 1-4-6.928v-72.171a8 8 0 0 1 4-6.928L67.032 128.8Zm364.032 37.454-62.502-36.086a5.999 5.999 0 0 0-6 0l-62.502 36.086a6 6 0 0 0-3 5.196v72.17a6.002 6.002 0 0 0 3 5.197l62.502 36.085a5.999 5.999 0 0 0 6 0l62.502-36.085a6.002 6.002 0 0 0 3-5.197v-72.17a6 6 0 0 0-3-5.196Zm-61.502-37.818a8 8 0 0 0-8 0l-62.502 36.086a8 8 0 0 0-4 6.928v72.17a8 8 0 0 0 4 6.929l62.502 36.085a8 8 0 0 0 8 0l62.502-36.085a8 8 0 0 0 4-6.929v-72.17a8 8 0 0 0-4-6.928l-62.502-36.086Zm-148.06 1.732 62.501 36.086a5.997 5.997 0 0 1 3 5.196v72.17a6 6 0 0 1-3 5.197l-62.501 36.085a5.999 5.999 0 0 1-6 0L153 248.817a6.002 6.002 0 0 1-3-5.197v-72.17a6 6 0 0 1 3-5.196l62.502-36.086a5.999 5.999 0 0 1 6 0Zm-7-1.732a8 8 0 0 1 8 0l62.501 36.086a7.998 7.998 0 0 1 4 6.928v72.17c0 2.859-1.524 5.5-4 6.929l-62.501 36.085a8 8 0 0 1-8 0L152 250.549a8 8 0 0 1-4-6.929v-72.17a8 8 0 0 1 4-6.928l62.502-36.086Z" clip-rule="evenodd"/>
  <defs>
    <radialGradient id="a" cx="0" cy="0" r="1" gradientTransform="rotate(-55.447 438.27 -12.012) scale(368.501 387.263)" gradientUnits="userSpaceOnUse">
      <stop stop-color="#17D4A7" stop-opacity=".5"/>
      <stop offset="1" stop-color="#17D4A7" stop-opacity="0"/>
    </radialGradient>
    <radialGradient id="b" cx="0" cy="0" r="1" gradientTransform="matrix(64.0001 100.49991 -87.62828 55.80323 175.093 124.262)" gradientUnits="userSpaceOnUse">
      <stop stop-color="#174BFF"/>
      <stop offset="1" stop-color="#174BFF" stop-opacity="0"/>
    </radialGradient>
  </defs>
</svg>
